X:218
T:B218-  I love you more and more each day
S:(2nd/2)
Q:1/4=120
L:1/4
M:C|
K:Gm
d/2|d3/2d/2ee|c3/2c/2d3/2d/2|B3/2B/2 (A/4B/4c/2) (B/2A/2)|\
A2G3/2d/2|d3/2=e/2ff|(=e/2f/2) (e/2d/2)^c3/2=e/2|\
a(a/2g/2)f3/2=e/2|=e2d3/2|||f/2|fe/2d/2)g3/2f/2|\
e3/2d/2c3/2c/2|cde3/2d/2|c2B3/2B/2|\
(B/4c/4d/2) (c/2B/2)G3/2B/2|(A/4B/4c/2) (B/2A/2)^F3/2d/2|\
edc(B3/4A/4)|A2.G3/2|]

